X:1
T:Title
%%score ( 1 2 ) 3
L:1/8
M:3/4
K:C
V:1 treble nm="Grand Piano, Staff"
V:2 treble 
V:3 treble nm="Nylon Gtr., Staff-1"
V:1
 z2 C2 E2 | G2 E3 D | C2 [Ec]2 [Ac]2 | [Gc]2 B-[DB] [Ec]2- | [Ec]2 C2 E2 | G2 E3 D | %6
 C2 [Ec]2 [Ac]2 | [Gc]2 B-[DB] [Ec]2- | [Ec]2 [Ec]2 [EG]2 | AB [Ec]3 [FA] | [EG]2 [FA]2 [FA]2 | %11
 [FA]2 [EG]3 [DF] | [CE]2 [EG]2 [CE]2 | [EG]2 [DF]2 [B,D]2 | [DF]2 [CE]4 | [B,D]2 C4 |] %16
V:2
 x6 | x6 | x6 | z2 .F2 z2 | x6 | x6 | x6 | z2 .F2 z2 | x6 | F2 z2 z2 | x6 | x6 | x6 | x6 | x6 | %15
 x6 |] %16
V:3
 z2 [G,CE]4- | [G,CE]2 [G,CE]4- | [G,CE]2 [G,CE]4- | [G,CE]2 [G,B,D]2 [G,CE]2- | [G,CE]2 [G,CE]4- | %5
 [G,CE]2 [G,CE]4- | [G,CE]2 [G,CE]4- | [G,CE]2 [G,B,D]2 [G,CE]2- | [G,CE]2 [G,CE]4- | %9
 [G,CE]2 [G,CE]4- | [G,CE]2 [A,CF]4- | [A,CF]2 [G,CE]4- | [G,CE]2 [G,CE]4- | [G,CE]2 [G,B,DF]4- | %14
 [G,B,DF]2 [G,CE]4 | [G,B,D]2 [G,CE]4 |] %16

